packages/sources/icons/src/vitamix/drive-line.svg

<svg width="16" height="16" viewBox="0 0 16 16" fill="none" xmlns="http://www.w3.org/2000/svg">
<path fill-rule="evenodd" clip-rule="evenodd" d="M5.68 2.09999H10.32L14.6667 9.62932L12.3467 13.6493H3.66L1.33333 9.62932L5.68 2.09999ZM9.54997 3.43332L12.7406 8.95999H10.4113L7.21997 3.43332H9.54997ZM6.06464 4.09999L2.87331 9.62866L4.04331 11.65L7.23331 6.12332L6.06464 4.09999ZM5.1987 12.316H11.5767L12.744 10.2933H6.3667L5.1987 12.316ZM7.13529 8.95999L8.00329 7.45732L8.87062 8.95999H7.13529Z" fill="#001018"/>
</svg>

<svg width="16" height="16" fill="none" xmlns="http://www.w3.org/2000/svg"><path fill-rule="evenodd" clip-rule="evenodd" d="M5.68 2.1h4.64l4.347 7.53-2.32 4.02H3.66L1.333 9.63 5.68 2.1zm3.87 1.333 3.19 5.527h-2.329L7.22 3.433h2.33zM6.065 4.1 2.873 9.629l1.17 2.021 3.19-5.527L6.065 4.1zm-.866 8.216h6.378l1.167-2.023H6.367l-1.168 2.023zM7.135 8.96l.868-1.503.868 1.503H7.135z" fill="#001018"/></svg>
